svg/fluentui-system-icons/ic_fluent_gantt_chart_16_filled.svg

<svg width="16" height="16" viewBox="0 0 16 16" fill="none" xmlns="http://www.w3.org/2000/svg">
<path d="M10 3H6V4H6.5C7.32843 4 8 4.67157 8 5.5C8 5.67532 7.96992 5.84361 7.91465 6H10V3ZM11 13V11H12.5C13.3284 11 14 10.3284 14 9.5C14 8.80827 13.5318 8.22589 12.895 8.05254C12.9627 7.88155 13 7.69512 13 7.5C13 6.67157 12.3284 6 11.5 6H11V3H12.5C13.8807 3 15 4.11929 15 5.5V10.5C15 11.8807 13.8807 13 12.5 13H11ZM9 9.5C9 9.32468 9.03008 9.15639 9.08535 9H7.5C6.67157 9 6 8.32843 6 7.5V13H10V10.9146C9.4174 10.7087 9 10.1531 9 9.5ZM5 7H3.5C2.67157 7 2 6.32843 2 5.5C2 4.67157 2.67157 4 3.5 4H5V3H3.5C2.11929 3 1 4.11929 1 5.5V10.5C1 11.8807 2.11929 13 3.5 13H5V7ZM3.5 5C3.22386 5 3 5.22386 3 5.5C3 5.77614 3.22386 6 3.5 6H6.5C6.77614 6 7 5.77614 7 5.5C7 5.22386 6.77614 5 6.5 5H3.5ZM7.5 7C7.22386 7 7 7.22386 7 7.5C7 7.77614 7.22386 8 7.5 8H11.5C11.7761 8 12 7.77614 12 7.5C12 7.22386 11.7761 7 11.5 7H7.5ZM10.5 9C10.2239 9 10 9.22386 10 9.5C10 9.77614 10.2239 10 10.5 10H12.5C12.7761 10 13 9.77614 13 9.5C13 9.22386 12.7761 9 12.5 9H10.5Z" fill="#212121"/>
</svg>

<svg xmlns="http://www.w3.org/2000/svg" width="16" height="16"><path d="M10 3H6v1h.5a1.5 1.5 0 0 1 1.415 2H10V3Zm1 10v-2h1.5a1.5 1.5 0 0 0 .395-2.947A1.5 1.5 0 0 0 11.5 6H11V3h1.5A2.5 2.5 0 0 1 15 5.5v5a2.5 2.5 0 0 1-2.5 2.5H11ZM9 9.5c0-.175.03-.344.085-.5H7.5A1.5 1.5 0 0 1 6 7.5V13h4v-2.085A1.5 1.5 0 0 1 9 9.5ZM5 7H3.5a1.5 1.5 0 1 1 0-3H5V3H3.5A2.5 2.5 0 0 0 1 5.5v5A2.5 2.5 0 0 0 3.5 13H5V7ZM3.5 5a.5.5 0 0 0 0 1h3a.5.5 0 0 0 0-1h-3Zm4 2a.5.5 0 0 0 0 1h4a.5.5 0 0 0 0-1h-4Zm3 2a.5.5 0 0 0 0 1h2a.5.5 0 0 0 0-1h-2Z"/></svg>
